lib/svgs/quit.svg

<svg xmlns="http://www.w3.org/2000/svg" viewBox="0 0 20 20">
    <path fill="#000" fill-rule="evenodd" d="M16,2 L7.2,2 C6.1,2 5.2,2.9 5.2,4 L5.2,5.2 L4,5.2 C2.9,5.2 2,6.1 2,7.2 L2,16 C2,17.1 2.9,18 4,18 L12.8,18 C13.9,18 14.8,17.1 14.8,16 L14.8,14.8 L16,14.8 C17.1,14.8 18,13.9 18,12.8 L18,4 C18,2.9 17.1,2 16,2 L16,2 Z M13.6,16 C13.6,16.434 13.234,16.8 12.8,16.8 L4,16.8 C3.566,16.8 3.2,16.434 3.2,16 L3.2,7.2 C3.2,6.766 3.566,6.4 4,6.4 L12.8,6.4 C13.234,6.4 13.6,6.766 13.6,7.2 L13.6,16 L13.6,16 Z M16.8,12.8 C16.8,13.234 16.434,13.6 16,13.6 L14.8,13.6 L14.8,7.2 C14.8,6.1 13.9,5.2 12.8,5.2 L6.4,5.2 L6.4,4 C6.4,3.566 6.766,3.2 7.2,3.2 L16,3.2 C16.434,3.2 16.8,3.566 16.8,4 L16.8,12.8 L16.8,12.8 Z M9.3153,9.0115 C9.0813,8.7775 8.7013,8.7775 8.4663,9.0115 C8.2323,9.2455 8.2323,9.6255 8.4663,9.8605 L9.8433,11.2365 L5.5093,11.2365 C5.1783,11.2365 4.9093,11.5055 4.9093,11.8365 C4.9093,12.1685 5.1783,12.4365 5.5093,12.4365 L9.8413,12.4365 L8.4663,13.8115 C8.2323,14.0455 8.2323,14.4255 8.4663,14.6595 C8.7013,14.8945 9.0813,14.8945 9.3153,14.6595 L11.7143,12.2605 C11.8323,12.1425 11.8903,11.9895 11.8903,11.8355 C11.8903,11.6825 11.8323,11.5285 11.7143,11.4115 L9.3153,9.0115 L9.3153,9.0115 Z"/>
</svg>

<svg xmlns="http://www.w3.org/2000/svg" viewBox="0 0 20 20">
    <path fill="#000" fill-rule="evenodd" d="M16 2H7.2c-1.1 0-2 .9-2 2v1.2H4c-1.1 0-2 .9-2 2V16c0 1.1.9 2 2 2h8.8c1.1 0 2-.9 2-2v-1.2H16c1.1 0 2-.9 2-2V4c0-1.1-.9-2-2-2m-2.4 14a.81.81 0 0 1-.8.8H4a.81.81 0 0 1-.8-.8V7.2c0-.434.366-.8.8-.8h8.8c.434 0 .8.366.8.8V16m3.2-3.2a.81.81 0 0 1-.8.8h-1.2V7.2c0-1.1-.9-2-2-2H6.4V4c0-.434.366-.8.8-.8H16c.434 0 .8.366.8.8v8.8M9.315 9.011a.601.601 0 0 0-.849.85l1.377 1.375H5.51a.6.6 0 0 0 0 1.2h4.332l-1.375 1.376a.6.6 0 1 0 .85.848l2.398-2.4a.597.597 0 0 0 0-.848l-2.399-2.4"/>
</svg>
